X:505
T: DIE BINSCHGAUER WOLLTEN WALLFAHRTEN GEHN
N: E1762
O: Europa, Mitteleuropa, Deutschland, Bayern
R: Spott - Lied auf Wallfahrt
M: 4/4
L: 1/8
K: G
D | DGGGG2GB | BAAFG2z
G | GBBBB2Bd | dccAB2z
G | FAAAA2AB | ccBBA2z
G | FAAAA2AB | ccBBA2z
D | d2zdc2zc | BGdBA2z
D | d2zdc2zc | BGdBA2z
D | GABcddz2 | eez2ddz
d | dccABdgB | dccAG2z
D | GABcddz2 | eez2ddz
d | dccABdgB | dccAG2z

